X: 10668
T: Down The Broom
R: reel
M: 4/4
K: Adorian
|:EAAG A2 (3Bcd|eggd edBA|G3B AE E2|DEGA BA A2|
EAAG A2 (3Bcd|g3d edBA|G3d gedB|1 GABG A3G:|2 GABG A2 (3Bcd||
|:eg g2 a2 ga|b2 af gedB|g2 eg dgeg|bgaf gedg|
eg g2 a2 ga|bgaf gedB|G3d gedB|1 GABG A2 (3Bcd:|2 GABG A3G||

